dist/svg/desktop-error.svg

<!-- Generated by Trend Micro Style Portal -->
<svg version="1.1" xmlns="http://www.w3.org/2000/svg" width="16" height="16" viewBox="0 0 16 16">
  <title>desktop-error</title>
  <path fill="rgb(34,34,34)" d="M14 7c-0.56-0.439-1.234-0.76-1.969-0.914l-0.031-0.006c-0.297-0.063-0.639-0.099-0.989-0.099-2.045 0-3.804 1.228-4.578 2.987l-0.013 0.032c-0.13 0.285-0.24 0.62-0.314 0.967l-0.006 0.033c-0.064 0.299-0.1 0.643-0.1 0.995 0 0.002 0 0.004 0 0.005v-0c0 0.13 0 0.25 0 0.38 0.009 0.193 0.027 0.372 0.054 0.548l-0.004-0.028s0 0.070 0 0.1 0.080 0.26 0.12 0.39c0.063 0.243 0.131 0.447 0.212 0.643l-0.012-0.033c0.094 0.199 0.184 0.363 0.282 0.521l-0.012-0.021c0.886 1.482 2.482 2.459 4.306 2.459 2.761 0 5-2.239 5-5 0-1.606-0.758-3.036-1.935-3.951l-0.011-0.008zM12 11l2 2-1 1-2-2-2 2-1-1 2-2-2-2 1-1 2 2 2-2 1 1-2 2zM5 11h-4c-0.552 0-1-0.448-1-1v0-9c0-0.552 0.448-1 1-1v0h12c0.552 0 1 0.448 1 1v0 4.8c-0.576-0.339-1.248-0.59-1.964-0.715l-0.036-0.005v-3.080h-10v7h3.34c-0.215 0.593-0.34 1.277-0.34 1.991 0 0.003 0 0.006 0 0.009v-0zM5.070 11.89c0.119 0.791 0.375 1.502 0.745 2.139l-0.015-0.029h-3.3c-0.274-0.003-0.495-0.226-0.495-0.5 0-0.182 0.097-0.341 0.243-0.429l0.002-0.001z"></path>
</svg>

<svg width="16" height="16" viewBox="0 0 16 16" fill="rgb(34, 34, 34)" xmlns="http://www.w3.org/2000/svg"><title>desktop-error</title><path d="M14 7C13.44 6.561 12.766 6.24 12.031 6.086L12 6.08C11.703 6.017 11.361 5.981 11.011 5.981C8.966 5.981 7.207 7.209 6.433 8.968L6.42 9C6.29 9.285 6.18 9.62 6.106 9.967L6.1 10C6.036 10.299 6 10.643 6 10.995C6 10.997 6 10.999 6 11C6 11.13 6 11.25 6 11.38C6.009 11.573 6.027 11.752 6.054 11.928L6.05 11.9C6.05 11.9 6.05 11.97 6.05 12C6.05 12.03 6.13 12.26 6.17 12.39C6.233 12.633 6.301 12.837 6.382 13.033L6.37 13C6.464 13.199 6.554 13.363 6.652 13.521L6.64 13.5C7.526 14.982 9.122 15.959 10.946 15.959C13.707 15.959 15.946 13.72 15.946 10.959C15.946 9.353 15.188 7.923 14.011 7.008L14 7ZM12 11L14 13L13 14L11 12L9 14L8 13L10 11L8 9L9 8L11 10L13 8L14 9L12 11ZM5 11H1C0.448 11 0 10.552 0 10V1C0 0.448 0.448 0 1 0H13C13.552 0 14 0.448 14 1V5.8C13.424 5.461 12.752 5.21 12.036 5.085L12 5.08V2H2V9H5.34C5.125 9.593 5 10.277 5 10.991C5 10.994 5 10.997 5 11ZM5.07 11.89C5.189 12.681 5.445 13.392 5.815 14.029L5.8 14H2.5C2.226 13.997 2.005 13.774 2.005 13.5C2.005 13.318 2.102 13.159 2.248 13.071L2.25 13.07L5.07 11.89Z" fill="rgb(34, 34, 34)" fill-opacity="1.00"/></svg>
